designathon/img-about.svg

<svg clip-rule="evenodd" fill-rule="evenodd" stroke-linecap="square" stroke-miterlimit="3" viewBox="0 0 100 100" xmlns="http://www.w3.org/2000/svg"><path d="m0 0h100v100h-100z" fill="none"/><g stroke="#fff"><path d="m.093-.543c0 .02.007.036.021.05s.031.021.05.021.036-.007.05-.021.021-.03.021-.05c0-.019-.007-.036-.021-.05s-.031-.021-.05-.021-.036.007-.05.021-.021.031-.021.05zm-.057.114v.044h.067v.204h-.067v.044h.256v-.044h-.067v-.248z" fill="none" stroke-width=".01" transform="matrix(145.611 0 0 145.611 26.1197 104.656)"/><path d="m44.116 52.316h3.249v19.674h-6.463v.991h-3.249v-4.241h6.463zm18.231 19.674h-3.214v-3.25h3.214zm-21.445-23.915v.992h-3.249v-4.241h18.231v3.249zm6.158-8.018c-.675-.331-1.303-.786-1.883-1.366-1.35-1.351-2.026-2.958-2.026-4.823s.676-3.473 2.026-4.823c1.35-1.351 2.958-2.026 4.823-2.026s3.473.675 4.823 2.026c.58.58 1.036 1.207 1.366 1.883-.896-.44-1.876-.66-2.94-.66-1.865 0-3.472.676-4.823 2.026-1.35 1.35-2.025 2.958-2.025 4.823 0 1.064.219 2.044.659 2.94z" fill="#fff" fill-rule="nonzero" stroke-width="1.32" transform="matrix(1.50955 0 0 1.50955 -25.4777 -25.4777)"/></g></svg>

<?xml version="1.0" encoding="UTF-8" standalone="no"?>
<!DOCTYPE svg PUBLIC "-//W3C//DTD SVG 1.1//EN" "http://www.w3.org/Graphics/SVG/1.1/DTD/svg11.dtd">
<svg width="100%" height="100%" viewBox="0 0 100 100" version="1.1" xmlns="http://www.w3.org/2000/svg" xmlns:xlink="http://www.w3.org/1999/xlink" xml:space="preserve" xmlns:serif="http://www.serif.com/" style="fill-rule:evenodd;clip-rule:evenodd;stroke-linecap:square;stroke-miterlimit:3;">
    <rect id="Artboard1" x="0" y="0" width="100" height="100" style="fill:none;"/>
    <g id="Artboard11" serif:id="Artboard1">
        <g transform="matrix(145.611,0,0,145.611,26.1197,104.656)">
            <path d="M0.093,-0.543C0.093,-0.523 0.1,-0.507 0.114,-0.493C0.128,-0.479 0.145,-0.472 0.164,-0.472C0.183,-0.472 0.2,-0.479 0.214,-0.493C0.228,-0.507 0.235,-0.523 0.235,-0.543C0.235,-0.562 0.228,-0.579 0.214,-0.593C0.2,-0.607 0.183,-0.614 0.164,-0.614C0.145,-0.614 0.128,-0.607 0.114,-0.593C0.1,-0.579 0.093,-0.562 0.093,-0.543ZM0.036,-0.429L0.036,-0.385L0.103,-0.385L0.103,-0.181L0.036,-0.181L0.036,-0.137L0.292,-0.137L0.292,-0.181L0.225,-0.181L0.225,-0.429L0.036,-0.429Z" style="fill:none;fill-rule:nonzero;stroke:white;stroke-width:0.01px;"/>
        </g>
        <g transform="matrix(1.50955,0,0,1.50955,-25.4777,-25.4777)">
            <path d="M44.116,52.316L47.365,52.316L47.365,71.99L40.902,71.99L40.902,72.981L37.653,72.981L37.653,68.74L44.116,68.74L44.116,52.316ZM62.347,71.99L59.133,71.99L59.133,68.74L62.347,68.74L62.347,71.99ZM40.902,48.075L40.902,49.067L37.653,49.067L37.653,44.826L55.884,44.826L55.884,48.075L40.902,48.075ZM47.06,40.057C46.385,39.726 45.757,39.271 45.177,38.691C43.827,37.34 43.151,35.733 43.151,33.868C43.151,32.003 43.827,30.395 45.177,29.045C46.527,27.694 48.135,27.019 50,27.019C51.865,27.019 53.473,27.694 54.823,29.045C55.403,29.625 55.859,30.252 56.189,30.928C55.293,30.488 54.313,30.268 53.249,30.268C51.384,30.268 49.777,30.944 48.426,32.294C47.076,33.644 46.401,35.252 46.401,37.117C46.401,38.181 46.62,39.161 47.06,40.057Z" style="fill:white;fill-rule:nonzero;stroke:white;stroke-width:1.32px;"/>
        </g>
    </g>
</svg>
